X: 1
T:Bourr\'ee
M:3/8
O:France
R:Bourr\'ee
K:D
DE| FEFA ^GE| F4AB| =c2B2A2| =c2B2A2| FEFA ^GE| F4AB| =c2B2A2| F4 ::
A2| d2d2 cB| A4 GF| EFGA Bc| B2A2F2| d4 cB| A4 GF| EFGA Bc| d4:|
